src/pos-icons/less-than-or-equal.svg

<svg height="24" viewBox="0 0 24 24" width="24" xmlns="http://www.w3.org/2000/svg"><path d="m18.5 2.27-13.5 7.87 13.5 7.86 1-1.73-10.53-6.13 10.53-6.14zm-13.5 17.73v2h15v-2z"/></svg>

<?xml version="1.0" encoding="UTF-8"?><!DOCTYPE svg PUBLIC "-//W3C//DTD SVG 1.1//EN" "http://www.w3.org/Graphics/SVG/1.1/DTD/svg11.dtd"><svg xmlns="http://www.w3.org/2000/svg" xmlns:xlink="http://www.w3.org/1999/xlink" version="1.1" id="mdi-less-than-or-equal" width="24" height="24" viewBox="0 0 24 24"><path d="M18.5,2.27L5,10.14L18.5,18L19.5,16.27L8.97,10.14L19.5,4L18.5,2.27M5,20V22H20V20H5Z" /></svg>
